build/communication/WifiOutline.svg

<svg xmlns="http://www.w3.org/2000/svg" fill="none" viewBox="0 0 24 24" focusable="false"><path d="M0 0H24V24H0z"/><path fill="#74767B" fill-rule="evenodd" d="M7.72473 7.63185C9.08015 7.07041 10.5329 6.78145 12 6.78145C13.4671 6.78145 14.9198 7.07041 16.2752 7.63185C17.6307 8.19328 18.8622 9.01619 19.8996 10.0536C20.1535 10.3074 20.565 10.3074 20.8189 10.0536C21.0727 9.79974 21.0727 9.38819 20.8189 9.13435C19.6607 7.97623 18.2859 7.05757 16.7727 6.4308C15.2596 5.80404 13.6378 5.48145 12 5.48145C10.3622 5.48145 8.74039 5.80404 7.22724 6.4308C5.71409 7.05757 4.33921 7.97623 3.1811 9.13434C2.92726 9.38819 2.92726 9.79974 3.1811 10.0536C3.43494 10.3074 3.8465 10.3074 4.10034 10.0536C5.13774 9.01619 6.36931 8.19328 7.72473 7.63185ZM12.0001 10.1057C10.9696 10.1057 9.94919 10.3086 8.99716 10.703C8.04512 11.0973 7.18007 11.6753 6.45142 12.404C6.19758 12.6578 5.78602 12.6578 5.53218 12.404C5.27834 12.1501 5.27834 11.7386 5.53218 11.4847C6.38155 10.6354 7.38991 9.96161 8.49967 9.50194C9.60943 9.04226 10.7989 8.80566 12.0001 8.80566C13.2013 8.80566 14.3907 9.04226 15.5005 9.50194C16.6102 9.96161 17.6186 10.6354 18.4679 11.4848C18.7218 11.7386 18.7218 12.1501 18.4679 12.404C18.2141 12.6578 17.8025 12.6578 17.5487 12.404C16.82 11.6753 15.955 11.0973 15.003 10.703C14.0509 10.3086 13.0305 10.1057 12.0001 10.1057ZM10.2694 13.7732C10.8182 13.5459 11.4064 13.4289 12.0004 13.4289C12.5944 13.4289 13.1826 13.5459 13.7313 13.7732C14.2801 14.0005 14.7787 14.3337 15.1988 14.7537C15.4526 15.0076 15.8642 15.0076 16.118 14.7537C16.3718 14.4999 16.3718 14.0883 16.118 13.8345C15.5773 13.2937 14.9353 12.8648 14.2288 12.5722C13.5223 12.2795 12.7651 12.1289 12.0004 12.1289C11.2357 12.1289 10.4784 12.2795 9.77194 12.5722C9.06544 12.8648 8.4235 13.2937 7.88276 13.8345C7.62892 14.0883 7.62892 14.4999 7.88276 14.7537C8.1366 15.0076 8.54816 15.0076 8.802 14.7537C9.22202 14.3337 9.72065 14.0005 10.2694 13.7732ZM14.5058 16.1959C14.6317 16.3036 14.631 16.4945 14.5139 16.6117L12.2124 18.9132C12.0952 19.0304 11.9052 19.0304 11.7881 18.9132L9.48657 16.6117C9.36941 16.4945 9.36869 16.3036 9.49461 16.1959C9.80224 15.9328 10.1499 15.7193 10.525 15.5639C10.9927 15.3702 11.494 15.2705 12.0002 15.2705C12.5064 15.2705 13.0077 15.3702 13.4754 15.5639C13.8506 15.7193 14.1982 15.9328 14.5058 16.1959Z"/></svg>

<svg xmlns="http://www.w3.org/2000/svg" fill="none" viewBox="0 0 24 24" focusable="false"><path fill="#74767B" fill-rule="evenodd" d="M7.72 7.63c1.36-.56 2.81-.85 4.28-.85 1.46 0 2.91.29 4.27.85s2.59 1.38 3.62 2.42c.26.25.67.25.92 0a.64.64 0 0 0 0-.92 12.25 12.25 0 0 0-4.04-2.7 12.465 12.465 0 0 0-9.55 0c-1.51.62-2.89 1.54-4.04 2.7a.64.64 0 0 0 0 .92c.25.25.66.25.92 0a11 11 0 0 1 3.62-2.42M12 10.1c-1.04 0-2.06.2-3.01.6-.95.39-1.81.97-2.54 1.7-.26.25-.67.25-.92 0a.64.64 0 0 1 0-.92A9.16 9.16 0 0 1 12 8.8a9.15 9.15 0 0 1 6.46 2.68c.26.25.26.67 0 .92-.25.25-.66.25-.92 0A7.7 7.7 0 0 0 15 10.7c-.95-.4-1.97-.6-3-.6m-1.74 3.67c.55-.23 1.14-.35 1.74-.35a4.52 4.52 0 0 1 3.19 1.33c.26.25.67.25.92 0a.64.64 0 0 0 0-.92c-.54-.54-1.18-.97-1.89-1.26-.7-.3-1.46-.45-2.22-.45-.77 0-1.53.15-2.23.45-.71.29-1.35.72-1.89 1.26a.64.64 0 0 0 0 .92c.25.25.66.25.92 0 .42-.42.92-.75 1.46-.98m4.24 2.42c.13.11.13.3.01.42l-2.3 2.3c-.12.12-.31.12-.43 0l-2.3-2.3a.282.282 0 0 1 .01-.42c.31-.26.65-.48 1.03-.63.47-.19.97-.29 1.48-.29.5 0 1 .1 1.47.29.38.15.72.37 1.03.63"/></svg>
